optimized/20/solid/document-minus.svg

<svg xmlns="http://www.w3.org/2000/svg" viewBox="0 0 20 20">
  <path fill-rule="evenodd" d="M4.5 2C3.67157 2 3 2.67157 3 3.5V16.5C3 17.3284 3.67157 18 4.5 18H15.5C16.3284 18 17 17.3284 17 16.5V7.62132C17 7.2235 16.842 6.84197 16.5607 6.56066L12.4393 2.43934C12.158 2.15804 11.7765 2 11.3787 2H4.5ZM12.25 11.75C12.6642 11.75 13 11.4142 13 11C13 10.5858 12.6642 10.25 12.25 10.25H7.75C7.33579 10.25 7 10.5858 7 11C7 11.4142 7.33579 11.75 7.75 11.75H12.25Z" clip-rule="evenodd"/>
</svg>

<svg xmlns="http://www.w3.org/2000/svg" viewBox="0 0 20 20" fill="currentColor" aria-hidden="true">
  <path fill-rule="evenodd" d="M4.5 2A1.5 1.5 0 003 3.5v13A1.5 1.5 0 004.5 18h11a1.5 1.5 0 001.5-1.5V7.621a1.5 1.5 0 00-.44-1.06l-4.12-4.122A1.5 1.5 0 0011.378 2H4.5zm7.75 9.75a.75.75 0 000-1.5h-4.5a.75.75 0 000 1.5h4.5z" clip-rule="evenodd"/>
</svg>
